X:4
T:The Weaver's Morris
C:Tom Graves, Jan 1996
I:very obviously a morris tune!
I:works particularly well on descant recorder
M:6/8
L:1/8
Q:3/8=144
K:G % 1 sharp
D2 G B2 G|D2 G BAG|F2 G A2 B|c3 A3|
D2 G B2 G|D2 G BAG|F2 G A2 B|c3-c2 c :|
e2 e e2 c|d2 d d2 B|cBA B2 G|A3 D3|
e2 e e2 c|d2 d d2 B|cBA G2 F|1 G3-G2 G :|2 G3-G3|]
